X: 1
T: Accidental Tourist, The
M: 6/8
L: 1/8
R: jig
K: Dmaj
|: G | 
F^EF A^GA | BdB AFD | GFG B^AB | AFD E^DE |
F2 F A2 A | B/c/dB AFD | G2 G B^AB | AFC D2 :|
|: g | 
fdB A^GA | fdB AA/A/A | B=c/^c/d Adg | fg/^g/a ea=g |
[1 fdB A2 A | fdB A2 A | BdB Adg | fge de :| 
[2 fdB AFD | B/c/dB AFD | GBF G/A/BG | AFc d2 ||
